X: 1
T:Hut in the Bog, The
R:reel
S:Session Galway 1992
H:Also played with only two parts, see #679
Z:id:hn-reel-428
M:C|
K:Ador
AGAB AGEG|AGAB c2Bc|~A3B AGEG|1 gedB c2Bc:|2 gedB c3d||
~e3f ed (3B^cd|efe^c d2cd|~e3f ed^cd|efge d2^cd|
~e3f ed (3B^cd|edge d2^cd|eaag eggf|gedB =c3d||
ecgc eccd|ecge d2cd|ecgc eccd|eage d2cd|
ecgc acgc|ecge d2cd|ea~a2 egfa|gedB c2Bc||
"variations"
A2GB AGEG|AGAB cedc|AGAB AGEG|1 gedB c2Bc:|2 gedB c3d||
~e3f ed^cd|efge d2^cd|~e3f ed (3B^cd|efge d2^cd|
edef ed^cd|efe^c d2cd|eg~g2 eaaf|gedB =c3d||
ecgc ec~c2|ecge d2cd|ecgc ec~c2|eage d2cd|
ecgc ecgc|ecge d2cd|eg~g2 eaaf|gedB c2Bc||
